assets/svg/icon_profile_block_user.svg

<svg width="24" height="24" viewBox="0 0 24 24" fill="none" xmlns="http://www.w3.org/2000/svg">
<path d="M11.7033 13.35V13.9875L11.705 13.9875L11.7033 13.35ZM14.3995 18.3038L13.9487 17.853C13.6998 18.102 13.6998 18.5056 13.9487 18.7546L14.3995 18.3038ZM16.8037 19.2997V19.9372V19.2997ZM20.2038 15.8996H20.8413H20.2038ZM16.8029 12.4995V13.137V12.4995ZM14.4658 7.4C14.4658 8.92569 13.229 10.1625 11.7033 10.1625V11.4375C13.9332 11.4375 15.7408 9.62985 15.7408 7.4H14.4658ZM11.7033 10.1625C10.1776 10.1625 8.94082 8.92569 8.94082 7.4H7.66582C7.66582 9.62985 9.47347 11.4375 11.7033 11.4375V10.1625ZM8.94082 7.4C8.94082 5.87431 10.1776 4.6375 11.7033 4.6375V3.3625C9.47347 3.3625 7.66582 5.17015 7.66582 7.4H8.94082ZM11.7033 4.6375C13.229 4.6375 14.4658 5.87431 14.4658 7.4H15.7408C15.7408 5.17015 13.9332 3.3625 11.7033 3.3625V4.6375ZM14.3923 13.0058C13.5091 12.8085 12.6066 12.7101 11.7017 12.7125L11.705 13.9875C12.5154 13.9854 13.3235 14.0735 14.1144 14.2501L14.3923 13.0058ZM11.7033 12.7125C9.7369 12.7125 7.92511 13.1596 6.58254 13.9148C5.25998 14.6587 4.26582 15.7862 4.26582 17.175H5.54082C5.54082 16.4515 6.06901 15.6665 7.20763 15.026C8.32623 14.3968 9.91444 13.9875 11.7033 13.9875V12.7125ZM4.26582 17.175C4.26582 18.1758 4.23156 19.4625 5.35076 20.3739C5.8858 20.8096 6.63431 21.1195 7.64559 21.3242C8.65968 21.5295 9.98141 21.6375 11.7033 21.6375V20.3625C10.0252 20.3625 8.79696 20.2564 7.89855 20.0746C6.99733 19.8921 6.47084 19.6418 6.15588 19.3853C5.57508 18.9123 5.54082 18.2865 5.54082 17.175H4.26582ZM11.7033 21.6375C14.141 21.6375 15.7914 21.4217 16.9047 21.0073C18.062 20.5765 18.6751 19.9142 18.9462 19.0699L17.7323 18.6801C17.5989 19.0955 17.3109 19.4957 16.4599 19.8124C15.5648 20.1456 14.0996 20.3625 11.7033 20.3625V21.6375ZM13.9487 18.7546C14.3237 19.1295 14.7688 19.4269 15.2586 19.6298L15.7465 18.4519C15.4114 18.313 15.1068 18.1096 14.8503 17.853L13.9487 18.7546ZM15.2586 19.6298C15.7485 19.8327 16.2735 19.9372 16.8037 19.9372V18.6622C16.441 18.6622 16.0817 18.5907 15.7465 18.4519L15.2586 19.6298ZM16.8037 19.9372C17.334 19.9372 17.859 19.8327 18.3489 19.6298L17.8609 18.4519C17.5258 18.5907 17.1665 18.6622 16.8037 18.6622V19.9372ZM18.3489 19.6298C18.8387 19.4269 19.2838 19.1295 19.6588 18.7546L18.7572 17.853C18.5007 18.1095 18.1961 18.313 17.8609 18.4519L18.3489 19.6298ZM19.6588 18.7546C20.0337 18.3797 20.3311 17.9346 20.534 17.4447L19.356 16.9568C19.2172 17.2919 19.0137 17.5965 18.7572 17.853L19.6588 18.7546ZM20.534 17.4447C20.7369 16.9548 20.8413 16.4298 20.8413 15.8996H19.5663C19.5663 16.2624 19.4949 16.6216 19.356 16.9568L20.534 17.4447ZM20.8413 15.8996C20.8413 15.3694 20.7369 14.8443 20.534 14.3545L19.356 14.8424C19.4949 15.1776 19.5663 15.5368 19.5663 15.8996H20.8413ZM20.534 14.3545C20.3311 13.8646 20.0337 13.4195 19.6588 13.0446L18.7572 13.9461C19.0137 14.2027 19.2172 14.5072 19.356 14.8424L20.534 14.3545ZM14.8495 17.853C14.3314 17.3349 14.0403 16.6323 14.0403 15.8996H12.7653C12.7653 16.9704 13.1907 17.9974 13.9479 18.7546L14.8495 17.853ZM14.0403 15.8996C14.0403 15.5368 14.1118 15.1776 14.2506 14.8424L13.0727 14.3545C12.8697 14.8443 12.7653 15.3694 12.7653 15.8996H14.0403ZM14.2506 14.8424C14.3894 14.5072 14.5929 14.2027 14.8495 13.9461L13.9479 13.0446C13.573 13.4195 13.2756 13.8646 13.0727 14.3545L14.2506 14.8424ZM14.8495 13.9461C15.106 13.6896 15.4105 13.4861 15.7457 13.3473L15.2578 12.1693C14.7679 12.3722 14.3228 12.6696 13.9479 13.0446L14.8495 13.9461ZM15.7457 13.3473C16.0809 13.2084 16.4401 13.137 16.8029 13.137V11.862C16.2727 11.862 15.7476 11.9664 15.2578 12.1693L15.7457 13.3473ZM16.8029 13.137C17.5356 13.137 18.2383 13.428 18.7563 13.9461L19.6579 13.0446C18.9007 12.2874 17.8737 11.862 16.8029 11.862V13.137ZM14.8503 18.7546L19.6579 13.947L18.7563 13.0454L13.9487 17.853L14.8503 18.7546Z" fill="#0166FF"/>
</svg>

<svg xmlns="http://www.w3.org/2000/svg" width="24" height="24" fill="none"><path fill="#0166FF" d="M11.703 13.35v.638h.002zm2.697 4.954-.451-.451a.64.64 0 0 0 0 .902zm2.404.996v.637zm3.4-3.4h.637zm-3.401-3.4v.637zm-2.337-5.1a2.76 2.76 0 0 1-2.763 2.762v1.275A4.037 4.037 0 0 0 15.741 7.4zm-2.763 2.762A2.76 2.76 0 0 1 8.941 7.4H7.666a4.037 4.037 0 0 0 4.037 4.037zM8.941 7.4a2.76 2.76 0 0 1 2.762-2.762V3.363A4.037 4.037 0 0 0 7.666 7.4zm2.762-2.762A2.76 2.76 0 0 1 14.466 7.4h1.275a4.037 4.037 0 0 0-4.038-4.038zm2.69 8.368a12.2 12.2 0 0 0-2.691-.293l.003 1.275c.81-.003 1.618.085 2.41.262zm-2.69-.293c-1.966 0-3.778.447-5.12 1.202-1.323.744-2.317 1.871-2.317 3.26H5.54c0-.724.528-1.509 1.667-2.149 1.118-.63 2.706-1.038 4.495-1.038zm-7.437 4.462c0 1-.034 2.287 1.085 3.199.535.436 1.283.745 2.295.95 1.014.205 2.335.313 4.057.313v-1.274c-1.678 0-2.906-.107-3.804-.288-.902-.183-1.428-.433-1.743-.69-.58-.473-.615-1.099-.615-2.21zm7.437 4.462c2.438 0 4.088-.215 5.202-.63 1.157-.43 1.77-1.093 2.041-1.937l-1.214-.39c-.133.416-.421.816-1.272 1.132-.895.334-2.36.55-4.757.55zm2.246-2.882c.375.375.82.672 1.31.875l.487-1.178a2.8 2.8 0 0 1-.896-.599zm1.31.875c.49.203 1.014.307 1.545.307v-1.275c-.363 0-.722-.071-1.057-.21zm1.545.307c.53 0 1.055-.104 1.545-.307l-.488-1.178c-.335.139-.695.21-1.057.21zm1.545-.307c.49-.203.935-.5 1.31-.875l-.902-.902c-.256.256-.56.46-.896.599zm1.31-.875c.375-.375.672-.82.875-1.31l-1.178-.488c-.139.335-.342.64-.599.896zm.875-1.31c.203-.49.307-1.015.307-1.545h-1.275c0 .362-.071.722-.21 1.057zm.307-1.545c0-.53-.104-1.056-.307-1.546l-1.178.488c.139.336.21.695.21 1.058zm-.307-1.546c-.203-.49-.5-.934-.875-1.31l-.902.902c.257.257.46.561.599.896zm-5.684 3.499a2.76 2.76 0 0 1-.81-1.953h-1.275c0 1.07.426 2.097 1.183 2.855zm-.81-1.953c0-.363.072-.722.21-1.058l-1.177-.488a4 4 0 0 0-.308 1.546zm.21-1.058c.14-.335.343-.64.6-.896l-.902-.901c-.375.374-.672.82-.875 1.31zm.6-.896c.256-.256.56-.46.896-.599l-.488-1.178c-.49.203-.935.5-1.31.876zm.896-.599c.335-.139.694-.21 1.057-.21v-1.275c-.53 0-1.055.104-1.545.307zm1.057-.21c.733 0 1.435.291 1.953.81l.902-.902a4.04 4.04 0 0 0-2.855-1.183zm-1.953 5.618 4.808-4.808-.902-.902-4.807 4.808z"/></svg>
